assets/TfB-logo-white.svg

<svg width="94" height="90" viewBox="0 0 94 90" fill="none" xmlns="http://www.w3.org/2000/svg">
<path d="M46.1688 89.6029L47.7002 89.6039C47.7598 89.6325 47.7596 89.6605 47.6994 89.6881H46.1694C46.1094 89.6601 46.1091 89.6317 46.1688 89.6029Z" fill="white"/>
<path d="M0 42.3935C0.161839 42.1874 0.0153671 41.9117 0.170427 41.7041C0.19834 42.0798 0.172523 42.4576 0.0937679 42.8258C0.0609392 42.8814 0.0296832 42.8806 0 42.8235V42.3935Z" fill="white"/>
<path d="M0.171474 47.899C0.015345 47.6914 0.1626 47.4151 0 47.209V46.779C0.0297935 46.7221 0.0621959 46.7207 0.0972073 46.7749C0.172046 47.1445 0.197028 47.5226 0.171474 47.899Z" fill="white"/>
<path d="M93.7928 45.4049L93.793 44.1979C93.8196 44.1386 93.8449 44.139 93.8689 44.1993V45.4032C93.845 45.4634 93.8196 45.464 93.7928 45.4049Z" fill="white"/>
<path d="M93.8689 44.1993L93.831 44.197L93.793 44.1978V43.6819C93.8183 43.68 93.8437 43.6805 93.8689 43.6834L93.8689 44.1993Z" fill="white"/>
<path d="M93.7928 45.4048C93.8181 45.4063 93.8436 45.4057 93.8688 45.4031V45.9191L93.8306 45.9212L93.7923 45.9204L93.7928 45.4048Z" fill="white"/>
<path d="M44.4551 0.0726731C44.4548 0.0484944 44.4562 0.0243273 44.4595 0.000366211H44.9094C44.9702 0.029556 44.9682 0.0539512 44.9033 0.0735519L44.4551 0.0726731Z" fill="white"/>
<path d="M45.9894 0.000366211C45.8528 0.118004 45.6877 0.0795478 45.5291 0.0767112C45.4973 0.0555086 45.4882 0.0371278 45.5019 0.0215688C45.5063 0.0155076 45.5119 0.010474 45.5184 0.00681401C45.5248 0.00315399 45.532 0.000954329 45.5394 0.000366211H45.9894Z" fill="white"/>
<path d="M48.3402 0.0763218C48.1814 0.0796591 48.0164 0.117915 47.8794 0.000366211H48.3294C48.3654 0.012892 48.379 0.0282878 48.3702 0.0466538C48.3609 0.0664102 48.3509 0.0763218 48.3402 0.0763218Z" fill="white"/>
<path d="M49.4094 0.000366211C49.4135 0.0239512 49.4152 0.0479115 49.4144 0.0718499L48.9654 0.07383C48.9006 0.0540291 48.8986 0.029556 48.9594 0.000410708L49.4094 0.000366211Z" fill="white"/>
<path d="M46.1688 89.6029C46.1697 89.6313 46.1699 89.6597 46.1695 89.6881H45.7195L45.7194 89.6006C45.868 89.5731 46.0204 89.5738 46.1688 89.6029Z" fill="white"/>
<path d="M47.6994 89.6881C47.6992 89.66 47.6995 89.6319 47.7002 89.6039C47.8484 89.5737 48.001 89.5727 48.1496 89.6009L48.1494 89.6881H47.6994Z" fill="white"/>
<path d="M45.5394 0.000366211C45.5368 0.0259517 45.5334 0.0514186 45.5291 0.0767668L45.1729 0.0758435C45.1165 0.0460531 45.1187 0.020894 45.1794 0.000366211H45.5394Z" fill="white"/>
<path d="M48.3402 0.0763218C48.3359 0.0511071 48.3323 0.0257886 48.3294 0.000366211H48.6894C48.7495 0.0203897 48.7518 0.0453189 48.6964 0.0751538L48.3402 0.0763218Z" fill="white"/>
<path d="M0.0927096 43.0837C0.102047 43.2076 0.120048 43.3336 0 43.4254V43.0814C0.0324759 43.0232 0.0633791 43.024 0.0927096 43.0837Z" fill="white"/>
<path d="M0 46.1771C0.121581 46.2693 0.10154 46.3959 0.0911773 46.5201C0.0614426 46.5784 0.0310502 46.5787 0 46.521V46.1771Z" fill="white"/>
<path d="M45.1794 0.000366211C45.1796 0.0257015 45.1774 0.0509952 45.173 0.0759325L44.9033 0.0735742C44.9069 0.0493292 44.909 0.0248759 44.9094 0.000366211H45.1794Z" fill="white"/>
<path d="M48.6963 0.0751538C48.6921 0.0504406 48.6898 0.0254382 48.6894 0.000366211H48.9594C48.9596 0.0249718 48.9616 0.0495277 48.9654 0.0738412L48.6963 0.0751538Z" fill="white"/>
<path d="M0.0927096 43.0837L0 43.0814V42.8235L0.0937679 42.8259L0.0927096 43.0837Z" fill="white"/>
<path d="M0 46.521L0.0911663 46.5201L0.0971963 46.7748L0 46.779V46.521Z" fill="white"/>
<path d="M93.7889 41.7964C93.7518 39.6068 93.4759 37.4279 92.9662 35.2991C92.0842 31.3735 90.6583 27.5928 88.7306 24.0687C87.7915 22.3512 86.7422 20.6974 85.5893 19.118C83.9949 16.9379 82.2174 14.9005 80.2766 13.0283C79.1418 11.9416 77.951 10.916 76.7094 9.95566C74.4308 8.16399 71.9892 6.59404 69.4173 5.26684C66.3767 3.68294 63.1769 2.43217 59.8724 1.53591C56.4615 0.565591 52.9365 0.0635643 49.3927 0.0433842H48.343C48.1888 0.0229157 48.026 0.0875915 47.8794 0H45.9891C45.84 0.0876026 45.6763 0.0229269 45.5204 0.0433842H44.4681C44.1083 0.0417489 43.7492 0.0769457 43.3919 0.0785921C41.5084 0.104335 39.6311 0.303843 37.7836 0.674624C31.9082 1.77398 26.2858 3.96372 21.2019 7.13269C18.2062 8.99698 15.4341 11.2044 12.9408 13.7111C12.4043 14.2506 11.8619 14.7869 11.3547 15.3494C9.68625 17.1926 8.16993 19.1704 6.82087 21.263C5.38538 23.4835 4.1535 25.8315 3.14054 28.2777C2.1924 30.575 1.44407 32.9512 0.904013 35.3793C0.401726 37.466 0.128734 39.6021 0.0899757 41.749C0.10098 42.0938 0.0857968 42.439 0.0445579 42.7814V43.0491C0.0265672 43.1744 0.0874072 43.3078 0 43.4249V46.1766C0.0874072 46.2962 0.0265672 46.4313 0.0445579 46.5582V46.8268C0.0870757 47.1702 0.102264 47.5165 0.0899757 47.8624C0.0754134 48.1637 0.125968 48.4625 0.130245 48.7622C0.201635 50.5928 0.459478 52.4112 0.899702 54.1887C1.95966 58.9708 3.82039 63.5354 6.40181 67.686C8.90939 71.7092 12.0223 75.3141 15.6288 78.3711C20.1439 82.2152 25.3291 85.1771 30.9191 87.1052C35.6907 88.7984 40.7136 89.6573 45.7715 89.6448H48.11C48.93 89.5613 49.7561 89.5843 50.5778 89.5712C52.8197 89.4974 55.0491 89.2045 57.235 88.6968C61.8125 87.7187 66.2263 86.0797 70.3402 83.8303C73.8017 81.9283 77.0193 79.6055 79.921 76.9138C81.1027 75.8033 82.2226 74.6277 83.2757 73.3924C85.3829 70.9721 87.2189 68.3244 88.7504 65.4975C90.2965 62.6634 91.5202 59.6621 92.3981 56.5506C92.9284 54.6907 93.3262 52.7949 93.5883 50.8777C93.7774 49.2146 93.8561 47.5407 93.824 45.8671V43.7262C93.818 43.0827 93.7914 42.4383 93.7889 41.7964ZM46.7329 78.8288C26.968 78.7231 11.3238 63.3189 11.3195 44.8036C11.316 26.1998 27.1025 10.7711 46.948 10.7629C66.8218 10.7784 82.5962 26.2489 82.5636 44.8592C82.5311 63.427 66.7241 78.9352 46.7329 78.8288Z" fill="white"/>
<path d="M63.2668 50.4036C62.8802 48.9491 62.1495 47.6109 61.1376 46.5041C60.1257 45.3972 58.8627 44.5546 57.4571 44.0487C56.4429 43.648 55.3905 43.3536 54.3166 43.1702C54.1941 43.149 54.0792 43.14 54.0741 42.9795C54.0698 42.8297 54.1144 42.7552 54.2857 42.715C54.6781 42.625 55.0657 42.5146 55.4468 42.3843C56.8071 41.9841 58.06 41.2784 59.1117 40.3202C60.1633 39.3621 60.9865 38.1762 61.5196 36.8514C62.3265 34.7491 62.5119 32.4557 62.0534 30.2492C61.7885 28.9241 61.2255 27.678 60.4078 26.6073C59.59 25.5365 58.5395 24.6697 57.3371 24.0736C56.1171 23.4133 54.8143 22.9223 53.464 22.6138C50.9923 22.0581 48.4685 21.7729 45.9363 21.7632C44.0768 21.7264 42.2182 21.7853 40.3605 21.8565C39.2825 21.8975 38.2045 21.9638 37.1283 22.0432C35.3802 22.1726 33.6399 22.3748 31.9047 22.6155C31.3434 22.6933 31.3417 22.6843 31.3417 23.2394V65.3633C31.3467 65.4634 31.3462 65.5637 31.34 65.6637C31.3169 65.884 31.3923 65.9961 31.6417 66.0436C32.5388 66.2147 33.4385 66.3654 34.3469 66.462C36.3743 66.6773 38.4085 66.8034 40.4462 66.8754C42.2148 66.9377 43.9851 66.8885 45.7546 66.9074C47.6579 66.9226 49.5579 66.746 51.4263 66.3801C53.8356 65.9607 56.1446 65.0854 58.2317 63.8003C60.7154 62.3373 62.5376 59.9567 63.3131 57.1621C63.9115 54.9476 63.8954 52.6097 63.2668 50.4036ZM40.0349 29.5238C40.0349 29.1014 40.0375 29.1038 40.4616 29.0604C42.4755 28.8662 44.5005 28.815 46.5215 28.9073C47.8249 28.9222 49.1109 29.2117 50.297 29.7572C51.1169 30.1034 51.8198 30.6819 52.3206 31.4228C52.8214 32.1637 53.0986 33.0353 53.1187 33.9319C53.1628 34.5469 53.1131 35.1652 52.9713 35.765C52.7236 36.7297 52.1809 37.5911 51.4204 38.2269C50.1799 39.2734 48.7376 40.0484 47.1848 40.5029C46.5439 40.6571 45.8873 40.7341 45.2285 40.7321C43.6124 40.8189 41.9937 40.8312 40.3759 40.8173C40.0418 40.814 40.0358 40.8099 40.0358 40.4767C40.0332 38.6296 40.0329 36.7829 40.0349 34.9364C40.0349 33.1319 40.0349 31.3278 40.0349 29.5238ZM54.314 54.4514C54.1767 55.275 53.858 56.0571 53.3816 56.74C52.9051 57.423 52.2829 57.9894 51.5608 58.3976C50.3897 59.0926 49.0861 59.5298 47.7357 59.6805C46.5135 59.8135 45.2824 59.8423 44.0554 59.7665C42.992 59.7379 41.9286 59.6977 40.8686 59.5979C40.0349 59.5193 40.0349 59.525 40.0349 58.7538V47.8386C40.0349 47.7379 40.0383 47.638 40.0349 47.5373C40.0323 47.4161 40.0837 47.3498 40.2183 47.3539C40.2774 47.3564 40.3382 47.3523 40.3982 47.3531C42.3613 47.3588 44.3262 47.313 46.2893 47.3916C47.6525 47.3972 49.0079 47.5984 50.3149 47.9892C51.4064 48.3243 52.392 48.9419 53.1735 49.7806C53.863 50.566 54.2739 51.5606 54.3415 52.6076C54.4099 53.2209 54.4007 53.8405 54.314 54.4514Z" fill="white"/>
</svg>

<svg xmlns="http://www.w3.org/2000/svg" width="94" height="90" fill="none" viewBox="0 0 94 90"><path fill="#fff" d="M46.169 89.603H47.7q.09.045 0 .085h-1.53q-.09-.042-.001-.085M0 42.394c.162-.207.015-.482.17-.69a4 4 0 0 1-.076 1.122q-.05.083-.094-.002zM.171 47.899c-.156-.208-.008-.484-.171-.69v-.43q.045-.085.097-.004c.075.37.1.748.074 1.124M93.793 45.405v-1.207q.04-.09.076.001v1.204q-.036.09-.076.002"/><path fill="#fff" d="m93.869 44.2-.038-.003h-.038v-.515a.4.4 0 0 1 .076.001zM93.793 45.405a1 1 0 0 0 .076-.002v.516l-.038.002h-.039zM44.455.073q0-.037.005-.073h.45q.09.045-.007.074zM45.99 0c-.137.118-.302.08-.46.077q-.05-.032-.028-.055A.05.05 0 0 1 45.539 0zM48.34.076c-.159.004-.324.042-.46-.076h.45q.053.019.04.047-.015.03-.03.03M49.41 0a.4.4 0 0 1 .004.072l-.449.002Q48.87.044 48.96 0zM46.169 89.603v.085h-.45v-.087a1.2 1.2 0 0 1 .45.002M47.7 89.688v-.084c.148-.03.301-.031.45-.003v.087z"/><path fill="#fff" d="m45.54 0-.01.077-.357-.001Q45.089.03 45.179 0zM48.34.076 48.33 0h.36q.09.03.006.075zM.093 43.084c.009.124.027.25-.093.341v-.344q.048-.087.093.003M0 46.177c.122.092.102.219.091.343q-.045.088-.091.001z"/><path fill="#fff" d="M45.18 0q0 .039-.007.076l-.27-.002A1 1 0 0 0 44.91 0zM48.696.075A1 1 0 0 1 48.69 0h.27q0 .038.006.074zM.093 43.084 0 43.08v-.258l.094.003zM0 46.521h.091l.006.254-.097.004z"/><path fill="#fff" d="M93.789 41.796a30 30 0 0 0-.823-6.497 43 43 0 0 0-4.235-11.23 45 45 0 0 0-3.142-4.951 47 47 0 0 0-5.312-6.09 45 45 0 0 0-3.568-3.072 45.7 45.7 0 0 0-7.292-4.69 47.7 47.7 0 0 0-9.545-3.73A39.1 39.1 0 0 0 49.392.043h-1.049c-.154-.02-.317.045-.464-.043h-1.89c-.149.088-.313.023-.469.043h-1.052c-.36-.001-.719.034-1.076.036-1.884.025-3.76.225-5.608.596a48 48 0 0 0-16.582 6.458 45.7 45.7 0 0 0-8.261 6.578c-.537.54-1.08 1.076-1.586 1.638a46 46 0 0 0-4.534 5.914A43.2 43.2 0 0 0 .904 35.379a29.5 29.5 0 0 0-.814 6.37q.016.518-.045 1.032v.268c-.018.125.042.259-.045.376v2.752c.087.12.027.254.045.381v.269q.063.516.045 1.035c-.015.302.036.6.04.9.072 1.83.33 3.65.77 5.427a43.3 43.3 0 0 0 5.502 13.497 45.7 45.7 0 0 0 9.227 10.685 47.5 47.5 0 0 0 15.29 8.734 44.1 44.1 0 0 0 14.853 2.54h2.338c.82-.084 1.646-.06 2.468-.074a34.4 34.4 0 0 0 6.657-.874A48.4 48.4 0 0 0 70.34 83.83a48.3 48.3 0 0 0 9.581-6.916 44 44 0 0 0 3.355-3.522 43.8 43.8 0 0 0 5.474-7.894 43 43 0 0 0 3.648-8.947c.53-1.86.928-3.756 1.19-5.673.19-1.663.268-3.337.236-5.01v-2.142c-.006-.643-.033-1.288-.035-1.93M46.733 78.83c-19.765-.106-35.41-15.51-35.413-34.025C11.315 26.2 27.101 10.77 46.948 10.763c19.874.015 35.648 15.486 35.616 34.096-.033 18.568-15.84 34.076-35.831 33.97"/><path fill="#fff" d="M63.267 50.404a9.3 9.3 0 0 0-2.13-3.9 9.2 9.2 0 0 0-3.68-2.455 15.8 15.8 0 0 0-3.14-.879c-.123-.021-.238-.03-.243-.19-.004-.15.04-.225.212-.265q.589-.135 1.16-.33a9.4 9.4 0 0 0 3.666-2.065 9.5 9.5 0 0 0 2.408-3.469c.806-2.102.992-4.395.533-6.602a8.9 8.9 0 0 0-1.645-3.642 8.76 8.76 0 0 0-3.07-2.533 15.3 15.3 0 0 0-3.874-1.46 35 35 0 0 0-7.528-.85c-1.86-.038-3.718.021-5.575.093a82.173 82.173 0 0 0-8.456.759c-.562.077-.563.068-.563.623v42.124q.007.15-.002.3c-.023.221.052.333.302.38.897.172 1.796.322 2.705.419 2.027.215 4.061.341 6.1.413 1.768.063 3.538.013 5.308.032a28.3 28.3 0 0 0 5.671-.527 19.3 19.3 0 0 0 6.806-2.58 11.16 11.16 0 0 0 5.081-6.638 12.64 12.64 0 0 0-.046-6.758m-23.232-20.88c0-.423.003-.42.427-.464a43 43 0 0 1 6.06-.153 9.3 9.3 0 0 1 3.775.85c.82.346 1.523.925 2.024 1.666.5.74.778 1.612.798 2.509a6 6 0 0 1-.148 1.833 4.75 4.75 0 0 1-1.55 2.462 11.6 11.6 0 0 1-4.236 2.276 8.3 8.3 0 0 1-1.957.23c-1.616.086-3.234.098-4.852.084-.334-.003-.34-.007-.34-.34q-.004-2.77-.001-5.54zM54.314 54.45a5.6 5.6 0 0 1-.932 2.289 5.55 5.55 0 0 1-1.821 1.658 9.6 9.6 0 0 1-3.825 1.282 21.7 21.7 0 0 1-3.68.087 48 48 0 0 1-3.187-.17c-.834-.078-.834-.072-.834-.843V47.839c0-.101.003-.201 0-.302-.003-.12.049-.187.183-.183.06.002.12-.002.18 0 1.963.005 3.928-.041 5.891.038 1.364.005 2.719.206 4.026.597a6.5 6.5 0 0 1 2.858 1.792 4.75 4.75 0 0 1 1.169 2.827c.068.613.059 1.233-.028 1.843"/></svg>
